<?xml version="1.0" encoding="UTF-8"?>
<map version="1.10" tiledversion="1.12.2" orientation="orthogonal" renderorder="right-down" width="50" height="12" tilewidth="16" tileheight="16" infinite="0" nextlayerid="8" nextobjectid="74">
 <tileset firstgid="1" name="" tilewidth="16" tileheight="16" tilecount="77" columns="7">
  <image source="../../../../../../../../../../testeando/graphics/tileset.png" width="112" height="176"/>
  <tile id="6">
   <properties>
    <property name="collision" value="solid"/>
   </properties>
  </tile>
  <tile id="17">
   <properties>
    <property name="collision" value="solid"/>
   </properties>
  </tile>
  <tile id="41">
   <properties>
    <property name="collision" value="solid"/>
   </properties>
  </tile>
  <tile id="0">
   <properties>
    <property name="collision" value="platform"/>
   </properties>
  </tile>
  <tile id="1">
   <properties>
    <property name="collision" value="platform"/>
   </properties>
  </tile>
  <tile id="2">
   <properties>
    <property name="collision" value="platform"/>
   </properties>
  </tile>
  <tile id="3">
   <properties>
    <property name="collision" value="platform"/>
   </properties>
  </tile>
  <tile id="7"/>
  <tile id="8"/>
  <tile id="9"/>
  <tile id="4">
   <properties>
    <property name="collision" value="platform"/>
   </properties>
  </tile>
  <tile id="11"/>
  <tile id="12"/>
  <tile id="13"/>
  <tile id="14"/>
  <tile id="15"/>
  <tile id="16"/>
  <tile id="5">
   <properties>
    <property name="collision" value="platform"/>
   </properties>
  </tile>
  <tile id="18"/>
  <tile id="19"/>
  <tile id="20"/>
  <tile id="21"/>
  <tile id="22"/>
  <tile id="23"/>
  <tile id="24"/>
  <tile id="25"/>
  <tile id="26"/>
  <tile id="27"/>
  <tile id="28"/>
  <tile id="29"/>
  <tile id="30"/>
  <tile id="31"/>
  <tile id="32"/>
  <tile id="33"/>
  <tile id="34"/>
  <tile id="35"/>
  <tile id="36"/>
  <tile id="37"/>
  <tile id="38"/>
  <tile id="39"/>
  <tile id="40"/>
  <tile id="10">
   <properties>
    <property name="collision" value="platform"/>
   </properties>
  </tile>
  <tile id="42"/>
  <tile id="43"/>
  <tile id="44"/>
  <tile id="45"/>
  <tile id="46"/>
  <tile id="47"/>
  <tile id="48"/>
  <tile id="49"/>
  <tile id="50"/>
  <tile id="51"/>
  <tile id="52"/>
  <tile id="53"/>
  <tile id="54"/>
  <tile id="55"/>
  <tile id="56"/>
  <tile id="57"/>
  <tile id="58"/>
  <tile id="59"/>
  <tile id="60"/>
  <tile id="61"/>
  <tile id="62"/>
  <tile id="63"/>
  <tile id="64"/>
  <tile id="65"/>
  <tile id="66"/>
  <tile id="67"/>
  <tile id="68"/>
  <tile id="69"/>
  <tile id="70"/>
  <tile id="71"/>
  <tile id="72"/>
  <tile id="73"/>
  <tile id="74"/>
  <tile id="75"/>
  <tile id="76"/>
 </tileset>
 <group id="2" name="tilemap">
  <layer id="1" name="Background" width="50" height="12">
   <data encoding="csv">
59,60,75,75,75,75,75,75,75,75,52,61,61,61,75,75,75,75,75,75,75,75,75,75,75,75,75,75,52,61,53,75,75,75,75,75,52,61,61,61,53,75,75,75,75,75,75,75,75,75,
75,75,75,75,52,61,61,53,75,75,59,61,61,60,75,75,75,75,75,75,75,75,75,75,75,75,75,75,59,61,61,60,75,75,75,75,59,61,59,59,60,75,75,75,75,75,75,75,75,75,
75,75,75,75,59,61,61,60,75,75,75,75,75,75,75,75,75,75,75,75,75,75,75,75,75,75,75,75,75,75,75,75,75,75,75,75,75,75,75,59,60,75,75,75,75,75,75,75,75,75,
75,75,75,75,75,75,75,75,75,75,75,75,75,75,75,75,75,75,75,75,75,75,75,75,75,75,75,75,75,75,75,75,75,75,75,75,75,75,75,75,75,75,75,75,75,75,75,75,75,75,
75,75,75,75,75,75,75,75,75,75,75,75,75,75,75,75,75,75,75,75,75,75,75,75,75,75,75,75,75,75,75,75,75,75,75,75,75,75,75,75,75,75,75,75,75,75,75,75,75,75,
75,75,75,75,75,75,75,75,75,75,75,75,75,75,75,75,75,75,75,75,75,75,75,75,75,75,75,75,75,75,75,75,75,75,75,75,75,75,75,75,75,75,75,75,75,75,75,75,75,75,
75,75,75,75,75,75,75,75,75,75,75,75,75,75,75,75,75,75,75,75,75,75,75,75,75,75,75,75,75,75,75,75,75,75,75,75,75,75,75,75,75,75,75,75,75,75,75,75,75,75,
75,75,75,75,75,75,75,75,75,75,75,75,75,75,75,75,75,75,75,75,75,75,75,75,75,75,75,75,75,75,75,75,75,75,75,75,75,75,75,75,75,75,75,75,75,75,75,75,75,75,
75,75,75,75,75,75,75,75,75,75,75,75,75,75,75,75,75,75,75,75,75,75,75,75,75,75,75,75,75,75,75,75,75,75,75,75,75,75,75,75,75,75,75,75,75,75,75,75,75,75,
75,75,75,75,75,75,75,75,75,75,75,75,75,75,75,75,75,75,75,75,75,75,75,75,75,75,75,75,75,75,75,75,75,75,75,75,75,75,75,75,75,75,75,61,61,75,75,75,75,75,
75,75,75,75,75,75,75,75,75,75,75,75,75,75,75,75,75,75,75,75,75,75,75,75,75,75,75,75,75,75,75,75,75,75,75,75,75,75,75,75,75,75,75,61,61,61,61,75,75,75,
75,75,75,75,75,75,75,75,75,75,75,75,75,75,75,75,75,75,75,75,75,75,75,75,75,75,75,75,75,75,75,75,75,75,75,75,75,75,75,75,75,75,75,75,75,75,75,75,75,75
</data>
  </layer>
  <layer id="3" name="ground" width="50" height="12">
   <data encoding="csv">
0,0,0,0,0,0,0,0,0,0,0,0,0,0,0,0,0,0,0,0,0,0,0,0,0,0,0,0,0,0,0,0,0,0,0,0,0,0,0,0,0,0,0,0,0,0,0,0,0,0,
0,0,0,0,0,0,0,0,0,0,0,0,0,0,0,0,0,0,0,0,0,0,0,0,0,0,0,0,0,0,0,0,0,0,0,0,0,0,0,0,0,0,0,0,0,0,0,0,0,0,
0,0,0,0,0,0,0,0,0,0,0,0,0,0,0,0,0,0,0,0,0,0,0,1,2,3,0,0,0,0,0,0,0,1,2,3,2,2,1,2,2,2,3,0,0,0,0,0,0,0,
0,0,0,18,7,0,0,0,0,0,0,0,0,0,0,0,0,0,0,0,0,0,0,8,9,10,0,0,0,0,0,0,0,0,0,0,0,0,0,0,0,0,0,0,0,0,0,0,0,0,
0,0,0,0,0,0,0,0,0,0,0,0,0,0,0,0,0,0,0,0,7,0,0,15,9,17,0,0,0,0,0,0,0,0,0,0,0,0,0,0,0,0,0,0,0,0,0,0,0,0,
0,0,0,0,0,0,0,0,0,0,0,0,0,0,0,0,0,0,0,0,0,7,1,2,2,2,3,0,0,0,0,0,0,0,0,0,7,0,7,19,7,7,7,0,0,0,2,2,2,2,
0,0,18,0,7,18,0,0,0,0,0,0,0,0,1,2,3,0,0,0,0,0,8,9,9,9,10,0,0,0,0,0,0,0,0,0,0,0,7,0,0,0,0,0,0,0,0,0,0,0,
0,0,0,0,0,0,0,0,0,0,0,0,0,0,0,0,0,0,0,0,0,0,15,9,9,9,17,0,0,0,0,0,0,0,0,0,0,0,7,19,42,42,0,0,7,0,0,0,0,0,
0,0,0,0,0,0,0,0,0,0,0,0,7,18,0,0,0,0,0,0,0,5,5,5,2,2,2,3,0,0,0,0,0,0,7,0,0,0,7,0,0,42,0,0,0,0,0,0,0,0,
1,2,3,0,0,0,0,0,0,0,0,0,0,0,0,0,0,0,0,0,0,8,9,9,9,9,9,10,0,0,0,0,0,0,0,0,0,0,7,0,0,42,0,0,0,0,0,0,0,0,
8,9,10,1,2,3,0,0,0,0,7,18,0,0,0,0,0,0,0,0,0,8,9,9,9,9,9,10,0,0,0,0,0,0,0,0,0,0,7,42,42,10,0,0,1,2,3,0,0,0,
15,16,17,8,9,10,0,0,0,0,0,0,0,0,0,0,0,0,0,0,0,15,16,16,16,16,16,17,0,0,0,0,7,0,0,0,0,0,15,16,16,17,0,0,0,0,0,0,0,0
</data>
  </layer>
  <layer id="4" name="decorations" width="50" height="12">
   <data encoding="csv">
0,0,0,0,0,0,0,0,0,0,0,0,0,0,0,0,0,0,0,0,0,0,0,0,0,0,0,0,0,0,0,0,0,0,0,0,0,0,0,0,0,0,0,0,0,0,0,0,0,0,
0,0,0,0,0,0,0,0,0,0,0,0,0,0,0,0,0,0,0,0,0,0,0,0,0,49,0,0,0,0,0,0,0,0,0,0,0,0,0,49,0,0,0,0,0,0,0,0,0,0,
0,0,0,0,0,0,0,0,0,0,0,0,0,0,0,0,0,0,0,0,0,0,0,24,0,0,0,0,0,0,0,0,0,0,0,0,0,0,0,0,0,0,0,0,0,0,24,0,0,0,
0,0,0,0,0,0,0,0,0,0,0,0,0,0,0,0,24,0,0,0,0,0,0,31,0,0,0,0,0,0,0,0,0,0,0,0,0,0,0,0,0,0,0,0,0,0,31,0,0,0,
0,0,0,0,0,0,0,0,0,0,0,0,0,0,0,0,31,0,0,0,0,0,0,38,49,0,0,0,0,0,0,0,0,0,0,0,0,0,0,0,0,0,0,0,0,0,38,49,0,0,
0,0,0,0,0,0,0,0,0,0,0,0,0,0,0,49,38,0,0,0,0,0,0,0,0,24,0,0,0,0,0,0,0,0,0,0,0,0,0,36,0,0,0,0,0,0,0,0,0,0,
0,24,0,0,0,0,0,0,0,0,0,0,0,0,0,0,0,0,0,0,0,0,0,0,0,31,0,0,0,0,0,0,0,0,0,0,0,0,0,36,0,0,0,0,0,0,0,0,0,0,
0,31,0,0,0,24,0,0,0,0,0,0,0,0,0,0,0,0,0,0,0,0,0,0,49,38,0,0,0,0,0,0,0,0,0,0,0,0,0,36,0,0,0,0,0,0,0,0,0,0,
0,38,49,0,0,31,0,0,0,0,0,0,0,0,0,0,0,0,0,0,0,0,0,0,0,0,0,0,0,0,0,0,0,0,0,0,0,0,0,0,0,0,0,0,0,0,0,0,0,0,
0,0,0,0,0,38,0,0,0,0,0,0,0,0,0,0,0,0,0,0,0,0,0,0,0,0,0,0,0,0,0,0,0,0,0,0,0,0,23,0,0,0,0,0,0,0,0,0,0,0,
0,0,23,0,0,0,0,0,0,0,0,0,0,0,0,0,0,0,0,0,0,0,0,0,0,0,0,0,0,0,0,0,0,0,0,0,0,0,30,0,0,23,0,0,0,0,0,0,0,0,
0,0,30,0,0,0,0,0,0,0,0,0,0,0,0,0,0,0,0,0,0,0,0,0,0,0,0,0,0,0,0,0,0,0,0,0,0,0,37,0,0,30,0,0,0,0,0,0,0,0
</data>
  </layer>
 </group>
 <objectgroup id="5" name="creatures">
  <object id="14" type="creature" x="174.5" y="145.5" width="16" height="16">
   <properties>
    <property name="tile_index" type="int" value="52"/>
   </properties>
  </object>
  <object id="19" type="creature" x="65" y="144" width="16" height="16">
   <properties>
    <property name="tile_index" type="int" value="48"/>
   </properties>
  </object>
  <object id="20" type="creature" x="226" y="80.5" width="16" height="16">
   <properties>
    <property name="tile_index" type="int" value="48"/>
   </properties>
  </object>
  <object id="21" type="creature" x="385.5" y="63.5" width="16" height="16">
   <properties>
    <property name="tile_index" type="int" value="52"/>
   </properties>
  </object>
  <object id="22" type="creature" x="417" y="111.5" width="16" height="16">
   <properties>
    <property name="tile_index" type="int" value="48"/>
   </properties>
  </object>
  <object id="23" type="creature" x="671.5" y="62.5" width="16" height="16">
   <properties>
    <property name="tile_index" type="int" value="52"/>
   </properties>
  </object>
  <object id="24" type="creature" x="658.5" y="14" width="16" height="16">
   <properties>
    <property name="tile_index" type="int" value="48"/>
   </properties>
  </object>
  <object id="34" type="creature" x="401" y="17.5" width="16" height="16">
   <properties>
    <property name="tile_index" type="int" value="48"/>
   </properties>
  </object>
  <object id="68" type="creature" x="733.5" y="143" width="16" height="16">
   <properties>
    <property name="tile_index" type="int" value="48"/>
   </properties>
  </object>
 </objectgroup>
 <objectgroup id="6" name="coins">
  <object id="47" type="coin" x="528" y="2.5" width="16" height="16">
   <properties>
    <property name="frame_index" type="int" value="61"/>
   </properties>
  </object>
  <object id="48" type="coin" x="544" y="2.5" width="16" height="16">
   <properties>
    <property name="frame_index" type="int" value="55"/>
   </properties>
  </object>
  <object id="49" type="coin" x="560" y="2.5" width="16" height="16">
   <properties>
    <property name="frame_index" type="int" value="61"/>
   </properties>
  </object>
  <object id="50" type="coin" x="528" y="18.5" width="16" height="16">
   <properties>
    <property name="frame_index" type="int" value="62"/>
   </properties>
  </object>
  <object id="51" type="coin" x="544" y="18.5" width="16" height="16">
   <properties>
    <property name="frame_index" type="int" value="61"/>
   </properties>
  </object>
  <object id="52" type="coin" x="560" y="18.5" width="16" height="16">
   <properties>
    <property name="frame_index" type="int" value="62"/>
   </properties>
  </object>
  <object id="53" type="coin" x="623.5" y="126" width="16" height="16">
   <properties>
    <property name="frame_index" type="int" value="54"/>
   </properties>
  </object>
  <object id="54" type="coin" x="639.5" y="126" width="16" height="16">
   <properties>
    <property name="frame_index" type="int" value="54"/>
   </properties>
  </object>
  <object id="55" type="coin" x="367.5" y="-1" width="16" height="16">
   <properties>
    <property name="frame_index" type="int" value="62"/>
   </properties>
  </object>
  <object id="56" type="coin" x="383.5" y="-1" width="16" height="16">
   <properties>
    <property name="frame_index" type="int" value="62"/>
   </properties>
  </object>
  <object id="57" type="coin" x="399.5" y="-1" width="16" height="16">
   <properties>
    <property name="frame_index" type="int" value="62"/>
   </properties>
  </object>
  <object id="61" type="coin" x="46.5" y="126" width="16" height="16">
   <properties>
    <property name="frame_index" type="int" value="62"/>
   </properties>
  </object>
  <object id="62" type="coin" x="62.5" y="126" width="16" height="16">
   <properties>
    <property name="frame_index" type="int" value="61"/>
   </properties>
  </object>
  <object id="63" type="coin" x="78.5" y="126" width="16" height="16">
   <properties>
    <property name="frame_index" type="int" value="62"/>
   </properties>
  </object>
  <object id="64" type="coin" x="48" y="0" width="16" height="16">
   <properties>
    <property name="frame_index" type="int" value="62"/>
   </properties>
  </object>
  <object id="65" type="coin" x="64" y="0" width="16" height="16">
   <properties>
    <property name="frame_index" type="int" value="61"/>
   </properties>
  </object>
  <object id="66" type="coin" x="139.5" y="63" width="16" height="16">
   <properties>
    <property name="frame_index" type="int" value="54"/>
   </properties>
  </object>
  <object id="67" type="coin" x="155.5" y="63" width="16" height="16">
   <properties>
    <property name="frame_index" type="int" value="54"/>
   </properties>
  </object>
  <object id="69" type="coin" x="705" y="126" width="16" height="16">
   <properties>
    <property name="frame_index" type="int" value="54"/>
   </properties>
  </object>
  <object id="70" type="coin" x="721" y="126" width="16" height="16">
   <properties>
    <property name="frame_index" type="int" value="54"/>
   </properties>
  </object>
  <object id="71" type="coin" x="738.5" y="126" width="16" height="16">
   <properties>
    <property name="frame_index" type="int" value="54"/>
   </properties>
  </object>
  <object id="72" type="coin" x="754.5" y="126" width="16" height="16">
   <properties>
    <property name="frame_index" type="int" value="54"/>
   </properties>
  </object>
 </objectgroup>
 <objectgroup id="7" name="special_blocks">
  <object id="73" x="768.774" y="31.4279" width="16" height="16">
   <properties>
    <property name="hit" type="bool" value="false"/>
   </properties>
  </object>
 </objectgroup>
</map>
